cable-data.svg

<svg fill="currentColor" viewBox="0 0 24 24"><path d="M7.05 3.5a3.52 3.52 0 0 0 0 4.97l8.49 8.48c.58.59.58 1.55 0 2.12-.59.59-1.54.59-2.13 0l-4.24-4.24 1.06-1.06-3.53-3.54-.36.36-1.41-1.42a1.02 1.02 0 0 0-1.43 0l-1.4 1.42c-.39.41-.39 1.02 0 1.41l1.4 1.41-.34.36L6.7 17.3l1.06-1.06L12 20.5a3.53 3.53 0 0 0 4.95 0c1.37-1.38 1.37-3.6 0-4.96L8.46 7.05c-.58-.59-.58-1.55 0-2.12.59-.59 1.54-.59 2.13 0l4.24 4.24-1.06 1.06 3.53 3.54.36-.36 1.41 1.42c.39.39 1.03.39 1.43 0l1.4-1.42c.39-.41.39-1.02 0-1.41l-1.4-1.41.34-.36L17.3 6.7l-1.06 1.06L12 3.5a3.53 3.53 0 0 0-4.95 0m-4.24 7.79 1.41-1.41 1.42 1.41-1.42 1.42m14.14 0 1.42-1.42 1.41 1.42-1.41 1.41Z"/></svg>

<svg  viewBox="0 0 24 24" fill="currentColor"><path  d="M7.05 3.5C5.68 4.88 5.68 7.1 7.05 8.47L15.54 16.95C16.12 17.54 16.12 18.5 15.54 19.07C14.95 19.66 14 19.66 13.41 19.07L9.17 14.83L10.23 13.77L6.7 10.23L6.34 10.59L4.93 9.17C4.54 8.78 3.91 8.78 3.5 9.17L2.1 10.59C1.71 11 1.71 11.61 2.1 12L3.5 13.41L3.16 13.77L6.7 17.3L7.76 16.24L12 20.5C13.37 21.85 15.58 21.85 16.95 20.5C18.32 19.12 18.32 16.9 16.95 15.54L8.46 7.05C7.88 6.46 7.88 5.5 8.46 4.93C9.05 4.34 10 4.34 10.59 4.93L14.83 9.17L13.77 10.23L17.3 13.77L17.66 13.41L19.07 14.83C19.46 15.22 20.1 15.22 20.5 14.83L21.9 13.41C22.29 13 22.29 12.39 21.9 12L20.5 10.59L20.84 10.23L17.3 6.7L16.24 7.76L12 3.5C10.63 2.15 8.42 2.15 7.05 3.5M2.81 11.29L4.22 9.88L5.64 11.29L4.22 12.71M18.36 12.71L19.78 11.29L21.19 12.71L19.78 14.12Z"/></svg>
